X: 25
T: Ya ru
L: 1/16
M: 3/4
K: Bb
z2 ^f f g2a6- [I:setbarnb 1]| 
[M:2/4]a8 | 
a4-a3 a | 
[M:3/4]b4a4g3 b | 
a6z6 | 
[M:2/4]b8 | 
[M:3/4]c'4b4a3 b | 
[M:2/4]a2g6- | 
g8 | 
b2b4c'2 | 
c'2 c' ba4- | 
[M:3/4]a8b2 a2 | 
[M:2/4]g8- | 
g2> b2 a b a g | 
a g^f6- | 
f2> a2g4 | 
z2 d e ^f2 g2- | 
g8- | 
g8 | 
b2> c'2 a3 b | 
g2> a2^f4 | 
e4g3 a | 
^f2 e2 e2 d2 | 
d8- | 
d8 | 
g8- | 
g2> b2 a b a g | 
a g ^f2 e2 d2 | 
^f2 e e e g d2 | 
d8- | 
d8 |]

@@@ Tune index: 8693
